OtherLibsLinux/FastvideoSDK/DataSet/LUT/lut3D_inverse_12.cube
TITLE "Inversed LUT 3D table"
# Created by CubeLUT.cpp
DOMAIN_MIN 0 0 0
DOMAIN_MAX 4095 4095 4095
LUT_3D_SIZE 33
4095 4095 4095
3967 4095 4095
3839 4095 4095
3711 4095 4095
3583 4095 4095
3455 4095 4095
3327 4095 4095
3199 4095 4095
3071 4095 4095
2943 4095 4095
2815 4095 4095
2687 4095 4095
2559 4095 4095
2431 4095 4095
2303 4095 4095
2175 4095 4095
2048 4095 4095
1920 4095 4095
1792 4095 4095
1664 4095 4095
1536 4095 4095
1408 4095 4095
1280 4095 4095
1152 4095 4095
1024 4095 4095
896 4095 4095
768 4095 4095
640 4095 4095
512 4095 4095
384 4095 4095
256 4095 4095
128 4095 4095
0 4095 4095
4095 3967 4095
3967 3967 4095
3839 3967 4095
3711 3967 4095
3583 3967 4095
3455 3967 4095
3327 3967 4095
3199 3967 4095
3071 3967 4095
2943 3967 4095
2815 3967 4095
2687 3967 4095
2559 3967 4095
2431 3967 4095
2303 3967 4095
2175 3967 4095
2048 3967 4095
1920 3967 4095
1792 3967 4095
1664 3967 4095
1536 3967 4095
1408 3967 4095
1280 3967 4095
1152 3967 4095
1024 3967 4095
896 3967 4095
768 3967 4095
640 3967 4095
512 3967 4095
384 3967 4095
256 3967 4095
128 3967 4095
0 3967 4095
4095 3839 4095
3967 3839 4095
3839 3839 4095
3711 3839 4095
3583 3839 4095
3455 3839 4095
3327 3839 4095
3199 3839 4095
3071 3839 4095
2943 3839 4095
2815 3839 4095
2687 3839 4095
2559 3839 4095
2431 3839 4095
2303 3839 4095
2175 3839 4095
2048 3839 4095
1920 3839 4095
1792 3839 4095
1664 3839 4095
1536 3839 4095
1408 3839 4095
1280 3839 4095
1152 3839 4095
1024 3839 4095
896 3839 4095
768 3839 4095
640 3839 4095
512 3839 4095
384 3839 4095
256 3839 4095
128 3839 4095
0 3839 4095
4095 3711 4095
3967 3711 4095
3839 3711 4095
3711 3711 4095
3583 3711 4095
3455 3711 4095
3327 3711 4095
3199 3711 4095
3071 3711 4095
2943 3711 4095
2815 3711 4095
2687 3711 4095
2559 3711 4095
2431 3711 4095
2303 3711 4095
2175 3711 4095
2048 3711 4095
1920 3711 4095
1792 3711 4095
1664 3711 4095
1536 3711 4095
1408 3711 4095
1280 3711 4095
1152 3711 4095
1024 3711 4095
896 3711 4095
768 3711 4095
640 3711 4095
512 3711 4095
384 3711 4095
256 3711 4095
128 3711 4095
0 3711 4095
4095 3583 4095
3967 3583 4095
3839 3583 4095
3711 3583 4095
3583 3583 4095
3455 3583 4095
3327 3583 4095
3199 3583 4095
3071 3583 4095
2943 3583 4095
2815 3583 4095
2687 3583 4095
2559 3583 4095
2431 3583 4095
2303 3583 4095
2175 3583 4095
2048 3583 4095
1920 3583 4095
1792 3583 4095
1664 3583 4095
1536 3583 4095
1408 3583 4095
1280 3583 4095
1152 3583 4095
1024 3583 4095
896 3583 4095
768 3583 4095
640 3583 4095
512 3583 4095
384 3583 4095
256 3583 4095
128 3583 4095
0 3583 4095
4095 3455 4095
3967 3455 4095
3839 3455 4095
3711 3455 4095
3583 3455 4095
3455 3455 4095
3327 3455 4095
3199 3455 4095
3071 3455 4095
2943 3455 4095
2815 3455 4095
2687 3455 4095
2559 3455 4095
2431 3455 4095
2303 3455 4095
2175 3455 4095
2048 3455 4095
1920 3455 4095
1792 3455 4095
1664 3455 4095
1536 3455 4095
1408 3455 4095
1280 3455 4095
1152 3455 4095
1024 3455 4095
896 3455 4095
768 3455 4095
640 3455 4095
512 3455 4095
384 3455 4095
256 3455 4095
128 3455 4095
0 3455 4095
4095 3327 4095
3967 3327 4095
3839 3327 4095
3711 3327 4095
3583 3327 4095
3455 3327 4095
3327 3327 4095
3199 3327 4095
3071 3327 4095
2943 3327 4095
2815 3327 4095
2687 3327 4095
2559 3327 4095
2431 3327 4095
2303 3327 4095
2175 3327 4095
2048 3327 4095
1920 3327 4095
1792 3327 4095
1664 3327 4095
1536 3327 4095
1408 3327 4095
1280 3327 4095
1152 3327 4095
1024 3327 4095
896 3327 4095
768 3327 4095
640 3327 4095
512 3327 4095
384 3327 4095
256 3327 4095
128 3327 4095
0 3327 4095
4095 3199 4095
3967 3199 4095
3839 3199 4095
3711 3199 4095
3583 3199 4095
3455 3199 4095
3327 3199 4095
3199 3199 4095
3071 3199 4095
2943 3199 4095
2815 3199 4095
2687 3199 4095
2559 3199 4095
2431 3199 4095
2303 3199 4095
2175 3199 4095
2048 3199 4095
1920 3199 4095
1792 3199 4095
1664 3199 4095
1536 3199 4095
1408 3199 4095
1280 3199 4095
1152 3199 4095
1024 3199 4095
896 3199 4095
768 3199 4095
640 3199 4095
512 3199 4095
384 3199 4095
256 3199 4095
128 3199 4095
0 3199 4095
4095 3071 4095
3967 3071 4095
3839 3071 4095
3711 3071 4095
3583 3071 4095
3455 3071 4095
3327 3071 4095
3199 3071 4095
3071 3071 4095
2943 3071 4095
2815 3071 4095
2687 3071 4095
2559 3071 4095
2431 3071 4095
2303 3071 4095
2175 3071 4095
2048 3071 4095
1920 3071 4095
1792 3071 4095
1664 3071 4095
1536 3071 4095
1408 3071 4095
1280 3071 4095
1152 3071 4095
1024 3071 4095
896 3071 4095
768 3071 4095
640 3071 4095
512 3071 4095
384 3071 4095
256 3071 4095
128 3071 4095
0 3071 4095
4095 2943 4095
3967 2943 4095
3839 2943 4095
3711 2943 4095
3583 2943 4095
3455 2943 4095
3327 2943 4095
3199 2943 4095
3071 2943 4095
2943 2943 4095
2815 2943 4095
2687 2943 4095
2559 2943 4095
2431 2943 4095
2303 2943 4095
2175 2943 4095
2048 2943 4095
1920 2943 4095
1792 2943 4095
1664 2943 4095
1536 2943 4095
1408 2943 4095
1280 2943 4095
1152 2943 4095
1024 2943 4095
896 2943 4095
768 2943 4095
640 2943 4095
512 2943 4095
384 2943 4095
256 2943 4095
128 2943 4095
0 2943 4095
4095 2815 4095
3967 2815 4095
3839 2815 4095
3711 2815 4095
3583 2815 4095
3455 2815 4095
3327 2815 4095
3199 2815 4095
3071 2815 4095
2943 2815 4095
2815 2815 4095
2687 2815 4095
2559 2815 4095
2431 2815 4095
2303 2815 4095
2175 2815 4095
2048 2815 4095
1920 2815 4095
1792 2815 4095
1664 2815 4095
1536 2815 4095
1408 2815 4095
1280 2815 4095
1152 2815 4095
1024 2815 4095
896 2815 4095
768 2815 4095
640 2815 4095
512 2815 4095
384 2815 4095
256 2815 4095
128 2815 4095
0 2815 4095
4095 2687 4095
3967 2687 4095
3839 2687 4095
3711 2687 4095
3583 2687 4095
3455 2687 4095
3327 2687 4095
3199 2687 4095
3071 2687 4095
2943 2687 4095
2815 2687 4095
2687 2687 4095
2559 2687 4095
2431 2687 4095
2303 2687 4095
2175 2687 4095
2048 2687 4095
1920 2687 4095
1792 2687 4095
1664 2687 4095
1536 2687 4095
1408 2687 4095
1280 2687 4095
1152 2687 4095
1024 2687 4095
896 2687 4095
768 2687 4095
640 2687 4095
512 2687 4095
384 2687 4095
256 2687 4095
128 2687 4095
0 2687 4095
4095 2559 4095
3967 2559 4095
3839 2559 4095
3711 2559 4095
3583 2559 4095
3455 2559 4095
3327 2559 4095
3199 2559 4095
3071 2559 4095
2943 2559 4095
2815 2559 4095
2687 2559 4095
2559 2559 4095
2431 2559 4095
2303 2559 4095
2175 2559 4095
2048 2559 4095
1920 2559 4095
1792 2559 4095
1664 2559 4095
1536 2559 4095
1408 2559 4095
1280 2559 4095
1152 2559 4095
1024 2559 4095
896 2559 4095
768 2559 4095
640 2559 4095
512 2559 4095
384 2559 4095
256 2559 4095
128 2559 4095
0 2559 4095
4095 2431 4095
3967 2431 4095
3839 2431 4095
3711 2431 4095
3583 2431 4095
3455 2431 4095
3327 2431 4095
3199 2431 4095
3071 2431 4095
2943 2431 4095
2815 2431 4095
2687 2431 4095
2559 2431 4095
2431 2431 4095
2303 2431 4095
2175 2431 4095
2048 2431 4095
1920 2431 4095
1792 2431 4095
1664 2431 4095
1536 2431 4095
1408 2431 4095
1280 2431 4095
1152 2431 4095
1024 2431 4095
896 2431 4095
768 2431 4095
640 2431 4095
512 2431 4095
384 2431 4095
256 2431 4095
128 2431 4095
0 2431 4095
4095 2303 4095
3967 2303 4095
3839 2303 4095
3711 2303 4095
3583 2303 4095
3455 2303 4095
3327 2303 4095
3199 2303 4095
3071 2303 4095
2943 2303 4095
2815 2303 4095
2687 2303 4095
2559 2303 4095
2431 2303 4095
2303 2303 4095
2175 2303 4095
2048 2303 4095
1920 2303 4095
1792 2303 4095
1664 2303 4095
1536 2303 4095
1408 2303 4095
1280 2303 4095
1152 2303 4095
1024 2303 4095
896 2303 4095
768 2303 4095
640 2303 4095
512 2303 4095
384 2303 4095
256 2303 4095
128 2303 4095
0 2303 4095
4095 2175 4095
3967 2175 4095
3839 2175 4095
3711 2175 4095
3583 2175 4095
3455 2175 4095
3327 2175 4095
3199 2175 4095
3071 2175 4095
2943 2175 4095
2815 2175 4095
2687 2175 4095
2559 2175 4095
2431 2175 4095
2303 2175 4095
2175 2175 4095
2048 2175 4095
1920 2175 4095
1792 2175 4095
1664 2175 4095
1536 2175 4095
1408 2175 4095
1280 2175 4095
1152 2175 4095
1024 2175 4095
896 2175 4095
768 2175 4095
640 2175 4095
512 2175 4095
384 2175 4095
256 2175 4095
128 2175 4095
0 2175 4095
4095 2048 4095
3967 2048 4095
3839 2048 4095
3711 2048 4095
3583 2048 4095
3455 2048 4095
3327 2048 4095
3199 2048 4095
3071 2048 4095
2943 2048 4095
2815 2048 4095
2687 2048 4095
2559 2048 4095
2431 2048 4095
2303 2048 4095
2175 2048 4095
2048 2048 4095
1920 2048 4095
1792 2048 4095
1664 2048 4095
1536 2048 4095
1408 2048 4095
1280 2048 4095
1152 2048 4095
1024 2048 4095
896 2048 4095
768 2048 4095
640 2048 4095
512 2048 4095
384 2048 4095
256 2048 4095
128 2048 4095
0 2048 4095
4095 1920 4095
3967 1920 4095
3839 1920 4095
3711 1920 4095
3583 1920 4095
3455 1920 4095
3327 1920 4095
3199 1920 4095
3071 1920 4095
2943 1920 4095
2815 1920 4095
2687 1920 4095
2559 1920 4095
2431 1920 4095
2303 1920 4095
2175 1920 4095
2048 1920 4095
1920 1920 4095
1792 1920 4095
1664 1920 4095
1536 1920 4095
1408 1920 4095
1280 1920 4095
1152 1920 4095
1024 1920 4095
896 1920 4095
768 1920 4095
640 1920 4095
512 1920 4095
384 1920 4095
256 1920 4095
128 1920 4095
0 1920 4095
4095 1792 4095
3967 1792 4095
3839 1792 4095
3711 1792 4095
3583 1792 4095
3455 1792 4095
3327 1792 4095
3199 1792 4095
3071 1792 4095
2943 1792 4095
2815 1792 4095
2687 1792 4095
2559 1792 4095
2431 1792 4095
2303 1792 4095
2175 1792 4095
2048 1792 4095
1920 1792 4095
1792 1792 4095
1664 1792 4095
1536 1792 4095
1408 1792 4095
1280 1792 4095
1152 1792 4095
1024 1792 4095
896 1792 4095
768 1792 4095
640 1792 4095
512 1792 4095
384 1792 4095
256 1792 4095
128 1792 4095
0 1792 4095
4095 1664 4095
3967 1664 4095
3839 1664 4095
3711 1664 4095
3583 1664 4095
3455 1664 4095
3327 1664 4095
3199 1664 4095
3071 1664 4095
2943 1664 4095
2815 1664 4095
2687 1664 4095
2559 1664 4095
2431 1664 4095
2303 1664 4095
2175 1664 4095
2048 1664 4095
1920 1664 4095
1792 1664 4095
1664 1664 4095
1536 1664 4095
1408 1664 4095
1280 1664 4095
1152 1664 4095
1024 1664 4095
896 1664 4095
768 1664 4095
640 1664 4095
512 1664 4095
384 1664 4095
256 1664 4095
128 1664 4095
0 1664 4095
4095 1536 4095
3967 1536 4095
3839 1536 4095
3711 1536 4095
3583 1536 4095
3455 1536 4095
3327 1536 4095
3199 1536 4095
3071 1536 4095
2943 1536 4095
2815 1536 4095
2687 1536 4095
2559 1536 4095
2431 1536 4095
2303 1536 4095
2175 1536 4095
2048 1536 4095
1920 1536 4095
1792 1536 4095
1664 1536 4095
1536 1536 4095
1408 1536 4095
1280 1536 4095
1152 1536 4095
1024 1536 4095
896 1536 4095
768 1536 4095
640 1536 4095
512 1536 4095
384 1536 4095
256 1536 4095
128 1536 4095
0 1536 4095
4095 1408 4095
3967 1408 4095
3839 1408 4095
3711 1408 4095
3583 1408 4095
3455 1408 4095
3327 1408 4095
3199 1408 4095
3071 1408 4095
2943 1408 4095
2815 1408 4095
2687 1408 4095
2559 1408 4095
2431 1408 4095
2303 1408 4095
2175 1408 4095
2048 1408 4095
1920 1408 4095
1792 1408 4095
1664 1408 4095
1536 1408 4095
1408 1408 4095
1280 1408 4095
1152 1408 4095
1024 1408 4095
896 1408 4095
768 1408 4095
640 1408 4095
512 1408 4095
384 1408 4095
256 1408 4095
128 1408 4095
0 1408 4095
4095 1280 4095
3967 1280 4095
3839 1280 4095
3711 1280 4095
3583 1280 4095
3455 1280 4095
3327 1280 4095
3199 1280 4095
3071 1280 4095
2943 1280 4095
2815 1280 4095
2687 1280 4095
2559 1280 4095
2431 1280 4095
2303 1280 4095
2175 1280 4095
2048 1280 4095
1920 1280 4095
1792 1280 4095
1664 1280 4095
1536 1280 4095
1408 1280 4095
1280 1280 4095
1152 1280 4095
1024 1280 4095
896 1280 4095
768 1280 4095
640 1280 4095
512 1280 4095
384 1280 4095
256 1280 4095
128 1280 4095
0 1280 4095
4095 1152 4095
3967 1152 4095
3839 1152 4095
3711 1152 4095
3583 1152 4095
3455 1152 4095
3327 1152 4095
3199 1152 4095
3071 1152 4095
2943 1152 4095
2815 1152 4095
2687 1152 4095
2559 1152 4095
2431 1152 4095
2303 1152 4095
2175 1152 4095
2048 1152 4095
1920 1152 4095
1792 1152 4095
1664 1152 4095
1536 1152 4095
1408 1152 4095
1280 1152 4095
1152 1152 4095
1024 1152 4095
896 1152 4095
768 1152 4095
640 1152 4095
512 1152 4095
384 1152 4095
256 1152 4095
128 1152 4095
0 1152 4095
4095 1024 4095
3967 1024 4095
3839 1024 4095
3711 1024 4095
3583 1024 4095
3455 1024 4095
3327 1024 4095
3199 1024 4095
3071 1024 4095
2943 1024 4095
2815 1024 4095
2687 1024 4095
2559 1024 4095
2431 1024 4095
2303 1024 4095
2175 1024 4095
2048 1024 4095
1920 1024 4095
1792 1024 4095
1664 1024 4095
1536 1024 4095
1408 1024 4095
1280 1024 4095
1152 1024 4095
1024 1024 4095
896 1024 4095
768 1024 4095
640 1024 4095
512 1024 4095
384 1024 4095
256 1024 4095
128 1024 4095
0 1024 4095
4095 896 4095
3967 896 4095
3839 896 4095
3711 896 4095
3583 896 4095
3455 896 4095
3327 896 4095
3199 896 4095
3071 896 4095
2943 896 4095
2815 896 4095
2687 896 4095
2559 896 4095
2431 896 4095
2303 896 4095
2175 896 4095
2048 896 4095
1920 896 4095
1792 896 4095
1664 896 4095
1536 896 4095
1408 896 4095
1280 896 4095
1152 896 4095
1024 896 4095
896 896 4095
768 896 4095
640 896 4095
512 896 4095
384 896 4095
256 896 4095
128 896 4095
0 896 4095
4095 768 4095
3967 768 4095
3839 768 4095
3711 768 4095
3583 768 4095
3455 768 4095
3327 768 4095
3199 768 4095
3071 768 4095
2943 768 4095
2815 768 4095
2687 768 4095
2559 768 4095
2431 768 4095
2303 768 4095
2175 768 4095
2048 768 4095
1920 768 4095
1792 768 4095
1664 768 4095
1536 768 4095
1408 768 4095
1280 768 4095
1152 768 4095
1024 768 4095
896 768 4095
768 768 4095
640 768 4095
512 768 4095
384 768 4095
256 768 4095
128 768 4095
0 768 4095
4095 640 4095
3967 640 4095
3839 640 4095
3711 640 4095
3583 640 4095
3455 640 4095
3327 640 4095
3199 640 4095
3071 640 4095
