OtherLibsLinux/FastvideoSDK/DataSet/LUT/lut3D_inverse_12.cube
TITLE "Inversed LUT 3D table"
# Created by CubeLUT.cpp
DOMAIN_MIN 0 0 0
DOMAIN_MAX 4095 4095 4095
LUT_3D_SIZE 9
4095 4095 4095
3583 4095 4095
3071 4095 4095
2559 4095 4095
2048 4095 4095
1536 4095 4095
1024 4095 4095
512 4095 4095
0 4095 4095
4095 3583 4095
3583 3583 4095
3071 3583 4095
2559 3583 4095
2048 3583 4095
1536 3583 4095
1024 3583 4095
512 3583 4095
0 3583 4095
4095 3071 4095
3583 3071 4095
3071 3071 4095
2559 3071 4095
2048 3071 4095
1536 3071 4095
1024 3071 4095
512 3071 4095
0 3071 4095
4095 2559 4095
3583 2559 4095
3071 2559 4095
2559 2559 4095
2048 2559 4095
1536 2559 4095
1024 2559 4095
512 2559 4095
0 2559 4095
4095 2048 4095
3583 2048 4095
3071 2048 4095
2559 2048 4095
2048 2048 4095
1536 2048 4095
1024 2048 4095
512 2048 4095
0 2048 4095
4095 1536 4095
3583 1536 4095
3071 1536 4095
2559 1536 4095
2048 1536 4095
1536 1536 4095
1024 1536 4095
512 1536 4095
0 1536 4095
4095 1024 4095
3583 1024 4095
3071 1024 4095
2559 1024 4095
2048 1024 4095
1536 1024 4095
1024 1024 4095
512 1024 4095
0 1024 4095
4095 512 4095
3583 512 4095
3071 512 4095
2559 512 4095
2048 512 4095
1536 512 4095
1024 512 4095
512 512 4095
0 512 4095
4095 0 4095
3583 0 4095
3071 0 4095
2559 0 4095
2048 0 4095
1536 0 4095
1024 0 4095
512 0 4095
0 0 4095
4095 4095 3583
3583 4095 3583
3071 4095 3583
2559 4095 3583
2048 4095 3583
1536 4095 3583
1024 4095 3583
512 4095 3583
0 4095 3583
4095 3583 3583
3583 3583 3583
3071 3583 3583
2559 3583 3583
2048 3583 3583
1536 3583 3583
1024 3583 3583
512 3583 3583
0 3583 3583
4095 3071 3583
3583 3071 3583
3071 3071 3583
2559 3071 3583
2048 3071 3583
1536 3071 3583
1024 3071 3583
512 3071 3583
0 3071 3583
4095 2559 3583
3583 2559 3583
3071 2559 3583
2559 2559 3583
2048 2559 3583
1536 2559 3583
1024 2559 3583
512 2559 3583
0 2559 3583
4095 2048 3583
3583 2048 3583
3071 2048 3583
2559 2048 3583
2048 2048 3583
1536 2048 3583
1024 2048 3583
512 2048 3583
0 2048 3583
4095 1536 3583
3583 1536 3583
3071 1536 3583
2559 1536 3583
2048 1536 3583
1536 1536 3583
1024 1536 3583
512 1536 3583
0 1536 3583
4095 1024 3583
3583 1024 3583
3071 1024 3583
2559 1024 3583
2048 1024 3583
1536 1024 3583
1024 1024 3583
512 1024 3583
0 1024 3583
4095 512 3583
3583 512 3583
3071 512 3583
2559 512 3583
2048 512 3583
1536 512 3583
1024 512 3583
512 512 3583
0 512 3583
4095 0 3583
3583 0 3583
3071 0 3583
2559 0 3583
2048 0 3583
1536 0 3583
1024 0 3583
512 0 3583
0 0 3583
4095 4095 3071
3583 4095 3071
3071 4095 3071
2559 4095 3071
2048 4095 3071
1536 4095 3071
1024 4095 3071
512 4095 3071
0 4095 3071
4095 3583 3071
3583 3583 3071
3071 3583 3071
2559 3583 3071
2048 3583 3071
1536 3583 3071
1024 3583 3071
512 3583 3071
0 3583 3071
4095 3071 3071
3583 3071 3071
3071 3071 3071
2559 3071 3071
2048 3071 3071
1536 3071 3071
1024 3071 3071
512 3071 3071
0 3071 3071
4095 2559 3071
3583 2559 3071
3071 2559 3071
2559 2559 3071
2048 2559 3071
1536 2559 3071
1024 2559 3071
512 2559 3071
0 2559 3071
4095 2048 3071
3583 2048 3071
3071 2048 3071
2559 2048 3071
2048 2048 3071
1536 2048 3071
1024 2048 3071
512 2048 3071
0 2048 3071
4095 1536 3071
3583 1536 3071
3071 1536 3071
2559 1536 3071
2048 1536 3071
1536 1536 3071
1024 1536 3071
512 1536 3071
0 1536 3071
4095 1024 3071
3583 1024 3071
3071 1024 3071
2559 1024 3071
2048 1024 3071
1536 1024 3071
1024 1024 3071
512 1024 3071
0 1024 3071
4095 512 3071
3583 512 3071
3071 512 3071
2559 512 3071
2048 512 3071
1536 512 3071
1024 512 3071
512 512 3071
0 512 3071
4095 0 3071
3583 0 3071
3071 0 3071
2559 0 3071
2048 0 3071
1536 0 3071
1024 0 3071
512 0 3071
0 0 3071
4095 4095 2559
3583 4095 2559
3071 4095 2559
2559 4095 2559
2048 4095 2559
1536 4095 2559
1024 4095 2559
512 4095 2559
0 4095 2559
4095 3583 2559
3583 3583 2559
3071 3583 2559
2559 3583 2559
2048 3583 2559
1536 3583 2559
1024 3583 2559
512 3583 2559
0 3583 2559
4095 3071 2559
3583 3071 2559
3071 3071 2559
2559 3071 2559
2048 3071 2559
1536 3071 2559
1024 3071 2559
512 3071 2559
0 3071 2559
4095 2559 2559
3583 2559 2559
3071 2559 2559
2559 2559 2559
2048 2559 2559
1536 2559 2559
1024 2559 2559
512 2559 2559
0 2559 2559
4095 2048 2559
3583 2048 2559
3071 2048 2559
2559 2048 2559
2048 2048 2559
1536 2048 2559
1024 2048 2559
512 2048 2559
0 2048 2559
4095 1536 2559
3583 1536 2559
3071 1536 2559
2559 1536 2559
2048 1536 2559
1536 1536 2559
1024 1536 2559
512 1536 2559
0 1536 2559
4095 1024 2559
3583 1024 2559
3071 1024 2559
2559 1024 2559
2048 1024 2559
1536 1024 2559
1024 1024 2559
512 1024 2559
0 1024 2559
4095 512 2559
3583 512 2559
3071 512 2559
2559 512 2559
2048 512 2559
1536 512 2559
1024 512 2559
512 512 2559
0 512 2559
4095 0 2559
3583 0 2559
3071 0 2559
2559 0 2559
2048 0 2559
1536 0 2559
1024 0 2559
512 0 2559
0 0 2559
4095 4095 2048
3583 4095 2048
3071 4095 2048
2559 4095 2048
2048 4095 2048
1536 4095 2048
1024 4095 2048
512 4095 2048
0 4095 2048
4095 3583 2048
3583 3583 2048
3071 3583 2048
2559 3583 2048
2048 3583 2048
1536 3583 2048
1024 3583 2048
512 3583 2048
0 3583 2048
4095 3071 2048
3583 3071 2048
3071 3071 2048
2559 3071 2048
2048 3071 2048
1536 3071 2048
1024 3071 2048
512 3071 2048
0 3071 2048
4095 2559 2048
3583 2559 2048
3071 2559 2048
2559 2559 2048
2048 2559 2048
1536 2559 2048
1024 2559 2048
512 2559 2048
0 2559 2048
4095 2048 2048
3583 2048 2048
3071 2048 2048
2559 2048 2048
2048 2048 2048
1536 2048 2048
1024 2048 2048
512 2048 2048
0 2048 2048
4095 1536 2048
3583 1536 2048
3071 1536 2048
2559 1536 2048
2048 1536 2048
1536 1536 2048
1024 1536 2048
512 1536 2048
0 1536 2048
4095 1024 2048
3583 1024 2048
3071 1024 2048
2559 1024 2048
2048 1024 2048
1536 1024 2048
1024 1024 2048
512 1024 2048
0 1024 2048
4095 512 2048
3583 512 2048
3071 512 2048
2559 512 2048
2048 512 2048
1536 512 2048
1024 512 2048
512 512 2048
0 512 2048
4095 0 2048
3583 0 2048
3071 0 2048
2559 0 2048
2048 0 2048
1536 0 2048
1024 0 2048
512 0 2048
0 0 2048
4095 4095 1536
3583 4095 1536
3071 4095 1536
2559 4095 1536
2048 4095 1536
1536 4095 1536
1024 4095 1536
512 4095 1536
0 4095 1536
4095 3583 1536
3583 3583 1536
3071 3583 1536
2559 3583 1536
2048 3583 1536
1536 3583 1536
1024 3583 1536
512 3583 1536
0 3583 1536
4095 3071 1536
3583 3071 1536
3071 3071 1536
2559 3071 1536
2048 3071 1536
1536 3071 1536
1024 3071 1536
512 3071 1536
0 3071 1536
4095 2559 1536
3583 2559 1536
3071 2559 1536
2559 2559 1536
2048 2559 1536
1536 2559 1536
1024 2559 1536
512 2559 1536
0 2559 1536
4095 2048 1536
3583 2048 1536
3071 2048 1536
2559 2048 1536
2048 2048 1536
1536 2048 1536
1024 2048 1536
512 2048 1536
0 2048 1536
4095 1536 1536
3583 1536 1536
3071 1536 1536
2559 1536 1536
2048 1536 1536
1536 1536 1536
1024 1536 1536
512 1536 1536
0 1536 1536
4095 1024 1536
3583 1024 1536
3071 1024 1536
2559 1024 1536
2048 1024 1536
1536 1024 1536
1024 1024 1536
512 1024 1536
0 1024 1536
4095 512 1536
3583 512 1536
3071 512 1536
2559 512 1536
2048 512 1536
1536 512 1536
1024 512 1536
512 512 1536
0 512 1536
4095 0 1536
3583 0 1536
3071 0 1536
2559 0 1536
2048 0 1536
1536 0 1536
1024 0 1536
512 0 1536
0 0 1536
4095 4095 1024
3583 4095 1024
3071 4095 1024
2559 4095 1024
2048 4095 1024
1536 4095 1024
1024 4095 1024
512 4095 1024
0 4095 1024
4095 3583 1024
3583 3583 1024
3071 3583 1024
2559 3583 1024
2048 3583 1024
1536 3583 1024
1024 3583 1024
512 3583 1024
0 3583 1024
4095 3071 1024
3583 3071 1024
3071 3071 1024
2559 3071 1024
2048 3071 1024
1536 3071 1024
1024 3071 1024
512 3071 1024
0 3071 1024
4095 2559 1024
3583 2559 1024
3071 2559 1024
2559 2559 1024
2048 2559 1024
1536 2559 1024
1024 2559 1024
512 2559 1024
0 2559 1024
4095 2048 1024
3583 2048 1024
3071 2048 1024
2559 2048 1024
2048 2048 1024
1536 2048 1024
1024 2048 1024
512 2048 1024
0 2048 1024
4095 1536 1024
3583 1536 1024
3071 1536 1024
2559 1536 1024
2048 1536 1024
1536 1536 1024
1024 1536 1024
512 1536 1024
0 1536 1024
4095 1024 1024
3583 1024 1024
3071 1024 1024
2559 1024 1024
2048 1024 1024
1536 1024 1024
1024 1024 1024
512 1024 1024
0 1024 1024
4095 512 1024
3583 512 1024
3071 512 1024
2559 512 1024
2048 512 1024
1536 512 1024
1024 512 1024
512 512 1024
0 512 1024
4095 0 1024
3583 0 1024
3071 0 1024
2559 0 1024
2048 0 1024
1536 0 1024
1024 0 1024
512 0 1024
0 0 1024
4095 4095 512
3583 4095 512
3071 4095 512
2559 4095 512
2048 4095 512
1536 4095 512
1024 4095 512
512 4095 512
0 4095 512
4095 3583 512
3583 3583 512
3071 3583 512
2559 3583 512
2048 3583 512
1536 3583 512
1024 3583 512
512 3583 512
0 3583 512
4095 3071 512
3583 3071 512
3071 3071 512
2559 3071 512
2048 3071 512
1536 3071 512
1024 3071 512
512 3071 512
0 3071 512
4095 2559 512
3583 2559 512
3071 2559 512
2559 2559 512
2048 2559 512
1536 2559 512
1024 2559 512
512 2559 512
0 2559 512
4095 2048 512
3583 2048 512
3071 2048 512
2559 2048 512
2048 2048 512
1536 2048 512
1024 2048 512
512 2048 512
0 2048 512
4095 1536 512
3583 1536 512
3071 1536 512
2559 1536 512
2048 1536 512
1536 1536 512
1024 1536 512
512 1536 512
0 1536 512
4095 1024 512
3583 1024 512
3071 1024 512
2559 1024 512
2048 1024 512
1536 1024 512
1024 1024 512
512 1024 512
0 1024 512
4095 512 512
3583 512 512
3071 512 512
2559 512 512
2048 512 512
1536 512 512
1024 512 512
512 512 512
0 512 512
4095 0 512
3583 0 512
3071 0 512
2559 0 512
2048 0 512
1536 0 512
1024 0 512
512 0 512
0 0 512
4095 4095 0
3583 4095 0
3071 4095 0
2559 4095 0
2048 4095 0
1536 4095 0
1024 4095 0
512 4095 0
0 4095 0
4095 3583 0
3583 3583 0
3071 3583 0
2559 3583 0
2048 3583 0
1536 3583 0
1024 3583 0
512 3583 0
0 3583 0
4095 3071 0
3583 3071 0
3071 3071 0
2559 3071 0
2048 3071 0
1536 3071 0
1024 3071 0
512 3071 0
0 3071 0
4095 2559 0
3583 2559 0
3071 2559 0
2559 2559 0
2048 2559 0
1536 2559 0
1024 2559 0
512 2559 0
0 2559 0
4095 2048 0
3583 2048 0
3071 2048 0
2559 2048 0
2048 2048 0
1536 2048 0
1024 2048 0
512 2048 0
0 2048 0
4095 1536 0
3583 1536 0
3071 1536 0
2559 1536 0
2048 1536 0
1536 1536 0
1024 1536 0
512 1536 0
0 1536 0
4095 1024 0
3583 1024 0
3071 1024 0
2559 1024 0
2048 1024 0
1536 1024 0
1024 1024 0
512 1024 0
0 1024 0
4095 512 0
3583 512 0
3071 512 0
2559 512 0
2048 512 0
1536 512 0
1024 512 0
512 512 0
0 512 0
4095 0 0
3583 0 0
3071 0 0
2559 0 0
2048 0 0
1536 0 0
1024 0 0
512 0 0
0 0 0
