OtherLibsLinux/FastvideoSDK/DataSet/LUT/lut3D_inverse_12.cube
TITLE "Inversed LUT 3D table"
# Created by CubeLUT.cpp
DOMAIN_MIN 0 0 0
DOMAIN_MAX 4095 4095 4095
LUT_3D_SIZE 5
4095 4095 4095
3071 4095 4095
2048 4095 4095
1024 4095 4095
0 4095 4095
4095 3071 4095
3071 3071 4095
2048 3071 4095
1024 3071 4095
0 3071 4095
4095 2048 4095
3071 2048 4095
2048 2048 4095
1024 2048 4095
0 2048 4095
4095 1024 4095
3071 1024 4095
2048 1024 4095
1024 1024 4095
0 1024 4095
4095 0 4095
3071 0 4095
2048 0 4095
1024 0 4095
0 0 4095
4095 4095 3071
3071 4095 3071
2048 4095 3071
1024 4095 3071
0 4095 3071
4095 3071 3071
3071 3071 3071
2048 3071 3071
1024 3071 3071
0 3071 3071
4095 2048 3071
3071 2048 3071
2048 2048 3071
1024 2048 3071
0 2048 3071
4095 1024 3071
3071 1024 3071
2048 1024 3071
1024 1024 3071
0 1024 3071
4095 0 3071
3071 0 3071
2048 0 3071
1024 0 3071
0 0 3071
4095 4095 2048
3071 4095 2048
2048 4095 2048
1024 4095 2048
0 4095 2048
4095 3071 2048
3071 3071 2048
2048 3071 2048
1024 3071 2048
0 3071 2048
4095 2048 2048
3071 2048 2048
2048 2048 2048
1024 2048 2048
0 2048 2048
4095 1024 2048
3071 1024 2048
2048 1024 2048
1024 1024 2048
0 1024 2048
4095 0 2048
3071 0 2048
2048 0 2048
1024 0 2048
0 0 2048
4095 4095 1024
3071 4095 1024
2048 4095 1024
1024 4095 1024
0 4095 1024
4095 3071 1024
3071 3071 1024
2048 3071 1024
1024 3071 1024
0 3071 1024
4095 2048 1024
3071 2048 1024
2048 2048 1024
1024 2048 1024
0 2048 1024
4095 1024 1024
3071 1024 1024
2048 1024 1024
1024 1024 1024
0 1024 1024
4095 0 1024
3071 0 1024
2048 0 1024
1024 0 1024
0 0 1024
4095 4095 0
3071 4095 0
2048 4095 0
1024 4095 0
0 4095 0
4095 3071 0
3071 3071 0
2048 3071 0
1024 3071 0
0 3071 0
4095 2048 0
3071 2048 0
2048 2048 0
1024 2048 0
0 2048 0
4095 1024 0
3071 1024 0
2048 1024 0
1024 1024 0
0 1024 0
4095 0 0
3071 0 0
2048 0 0
1024 0 0
0 0 0
